X: 20860
T: Jokijenkka
R: hornpipe
M: 4/4
K: Amajor
|:a2ga eAce|=g2fg dGBd|f2^ef dFAd|e2e2 edce|=g2fg dGBd|
f2^ef dFAd|1 ecAB =GEGA|BA=GA EAce:|2 ecBA B=GFE|=GBe2 A4||

